images/icon_service_question.svg

<svg width="63" height="62" viewBox="0 0 63 62" fill="none" xmlns="http://www.w3.org/2000/svg">
<g clip-path="url(#clip0_54_743)">
<path d="M31.5001 56.8337C17.2323 56.8337 5.66675 45.2681 5.66675 31.0003C5.66675 16.7326 17.2323 5.16699 31.5001 5.16699C45.7678 5.16699 57.3334 16.7326 57.3334 31.0003C57.3334 45.2681 45.7678 56.8337 31.5001 56.8337ZM31.5001 51.667C36.9812 51.667 42.2379 49.4896 46.1136 45.6139C49.9894 41.7381 52.1668 36.4815 52.1668 31.0003C52.1668 25.5192 49.9894 20.2625 46.1136 16.3868C42.2379 12.511 36.9812 10.3337 31.5001 10.3337C26.0189 10.3337 20.7623 12.511 16.8865 16.3868C13.0108 20.2625 10.8334 25.5192 10.8334 31.0003C10.8334 36.4815 13.0108 41.7381 16.8865 45.6139C20.7623 49.4896 26.0189 51.667 31.5001 51.667ZM28.9167 38.7503H34.0834V43.917H28.9167V38.7503ZM34.0834 34.5007V36.167H28.9167V32.292C28.9167 31.6069 29.1889 30.9498 29.6734 30.4653C30.1579 29.9808 30.8149 29.7087 31.5001 29.7087C32.234 29.7086 32.9527 29.5002 33.5728 29.1076C34.1928 28.715 34.6886 28.1544 35.0025 27.4911C35.3164 26.8277 35.4355 26.0889 35.3458 25.3605C35.2562 24.6321 34.9616 23.9442 34.4963 23.3767C34.031 22.8092 33.4141 22.3855 32.7174 22.1549C32.0207 21.9243 31.2728 21.8963 30.5608 22.0741C29.8489 22.252 29.202 22.6283 28.6955 23.1594C28.1891 23.6905 27.8438 24.3545 27.7 25.0742L22.6315 24.0589C22.9457 22.4885 23.6713 21.0296 24.7341 19.8315C25.7969 18.6334 27.1588 17.739 28.6806 17.2397C30.2024 16.7405 31.8294 16.6543 33.3954 16.9899C34.9614 17.3256 36.4102 18.071 37.5937 19.1501C38.7772 20.2292 39.6529 21.6032 40.1313 23.1317C40.6097 24.6601 40.6737 26.2882 40.3166 27.8495C39.9596 29.4107 39.1944 30.8492 38.0993 32.0178C37.0041 33.1864 35.6183 34.0433 34.0834 34.5007Z" fill="#0F3D5F"/>
</g>
<defs>
<clipPath id="clip0_54_743">
<rect width="62" height="62" fill="white" transform="translate(0.5)"/>
</clipPath>
</defs>
</svg>

<?xml version="1.0" encoding="UTF-8"?>
<svg id="_圖層_1" data-name="圖層_1" xmlns="http://www.w3.org/2000/svg" xmlns:xlink="http://www.w3.org/1999/xlink" version="1.1" viewBox="0 0 63 62">
  <!-- Generator: Adobe Illustrator 29.4.0, SVG Export Plug-In . SVG Version: 2.1.0 Build 152)  -->
  <defs>
    <style>
      .st0 {
        fill: none;
      }

      .st1 {
        fill: #a2231c;
      }

      .st2 {
        clip-path: url(#clippath);
      }
    </style>
    <clipPath id="clippath">
      <rect class="st0" x=".5" width="62" height="62"/>
    </clipPath>
  </defs>
  <g class="st2">
    <path class="st1" d="M31.5,56.8c-14.3,0-25.8-11.6-25.8-25.8S17.2,5.2,31.5,5.2s25.8,11.6,25.8,25.8-11.6,25.8-25.8,25.8ZM31.5,51.7c5.5,0,10.7-2.2,14.6-6.1,3.9-3.9,6.1-9.1,6.1-14.6s-2.2-10.7-6.1-14.6c-3.9-3.9-9.1-6.1-14.6-6.1s-10.7,2.2-14.6,6.1c-3.9,3.9-6.1,9.1-6.1,14.6s2.2,10.7,6.1,14.6c3.9,3.9,9.1,6.1,14.6,6.1ZM28.9,38.8h5.2v5.2h-5.2v-5.2ZM34.1,34.5v1.7h-5.2v-3.9c0-.7.3-1.3.8-1.8s1.1-.8,1.8-.8c.7,0,1.5-.2,2.1-.6.6-.4,1.1-1,1.4-1.6.3-.7.4-1.4.3-2.1,0-.7-.4-1.4-.8-2-.5-.6-1.1-1-1.8-1.2s-1.4-.3-2.2,0c-.7.2-1.4.6-1.9,1.1-.5.5-.9,1.2-1,1.9l-5.1-1c.3-1.6,1-3,2.1-4.2,1.1-1.2,2.4-2.1,3.9-2.6,1.5-.5,3.1-.6,4.7-.2,1.6.3,3,1.1,4.2,2.2,1.2,1.1,2.1,2.5,2.5,4,.5,1.5.5,3.2.2,4.7-.4,1.6-1.1,3-2.2,4.2-1.1,1.2-2.5,2-4,2.5Z"/>
  </g>
</svg>
